X: 1
T: Red Haired Boy, The
M: 4/4
L: 1/8
R: reel
K: Amix
|:&quot;A&quot;EAAG ABcd|efec &quot;D&quot;d2 cd|&quot;A&quot;eAAA ABcA|&quot;G&quot;B=GEF &quot;G&quot;G2 FG| 
&quot;A&quot;EAAG ABcd|efec &quot;D&quot;d2 cd|&quot;A&quot;eaaa afed|cA&quot;E&quot;BG &quot;A&quot;A4 :|
|: &quot;G&quot;g2 g&quot;G&quot;a gfef|gfec &quot;D&quot;d2 cd|&quot;A&quot;eAAA ABcA|&quot;G&quot;B=GEF G2 FG| 
&quot;A&quot;EAAG ABcd|efec &quot;D&quot;d2 cd|&quot;A&quot;eaaa afed|cA&quot;E&quot;BG &quot;A&quot;A4 :|
